storage/app/icons/phosphoricons/light/device-mobile-light.svg

<svg xmlns="http://www.w3.org/2000/svg" fill="currentColor" viewBox="0 0 256 256"><path d="M176 18H80a22 22 0 0 0-22 22v176a22 22 0 0 0 22 22h96a22 22 0 0 0 22-22V40a22 22 0 0 0-22-22M70 62h116v132H70Zm10-32h96a10 10 0 0 1 10 10v10H70V40a10 10 0 0 1 10-10m96 196H80a10 10 0 0 1-10-10v-10h116v10a10 10 0 0 1-10 10"/></svg>

<svg xmlns="http://www.w3.org/2000/svg" viewBox="0 0 256 256" fill="currentColor"><path d="M176,18H80A22,22,0,0,0,58,40V216a22,22,0,0,0,22,22h96a22,22,0,0,0,22-22V40A22,22,0,0,0,176,18ZM70,62H186V194H70ZM80,30h96a10,10,0,0,1,10,10V50H70V40A10,10,0,0,1,80,30Zm96,196H80a10,10,0,0,1-10-10V206H186v10A10,10,0,0,1,176,226Z"/></svg>
